X:1079
T:Mick O'Connor's
R:reel
C:Mick O'Connor
D:Brian Friel: Karusell
Z:id:hn-reel-1079
M:C|
L:1/8
K:D
A,2DE FDED | B,DDB, EDB,D | A,B,DE FDED | cdAF EDB,D |
A,B,DE FDED | B,E~E2 EDB,D | A,B,DE FDED |1 cdAF EDB,D :|2 cdAF EFDc :|
|: defd adfd | ed (3Bcd edBd | Ad~d2 Adfd | e2de fdec |
defd adfd | edBd edBe | fa~a2 afdf |1 e2ag fece :|2 ~e3f edBA ||

